images/border-mobile-2.svg

<svg width="375" height="100" viewBox="0 0 375 100" fill="none" xmlns="http://www.w3.org/2000/svg">
<path d="M780.499 17.8751L740.546 0.569995H407.869L332.174 33.3561H-271.382L-347.077 0.569995H-556V52.4624H416.607L523.99 98.974H1025.32L1132.71 52.4624H1364V17.8751H780.499Z" fill="url(#paint0_radial_2129_1089)"/>
<path d="M740.546 0.569995H407.869L350.177 25.5358H545.888L653.271 72.0474H970.63L1078.01 25.5358H1364V17.8751H780.499L740.546 0.569995Z" fill="url(#paint1_radial_2129_1089)"/>
<path d="M1026.27 100H523.043L522.306 99.7036L415.659 53.4884H-556V51.4364H417.607L524.99 97.948H1024.32L1131.7 51.4364H1364V53.4884H1133.65L1026.27 100Z" fill="url(#paint2_radial_2129_1089)"/>
<path d="M332.701 33.9261H-271.961L-347.656 1.13999H-556V0H-346.55L-270.856 32.7861H331.595L407.29 0H741.073L781.078 17.3051H1364V18.4451H779.973L740.02 1.13999H408.395L332.701 33.9261Z" fill="url(#paint3_radial_2129_1089)"/>
<defs>
<radialGradient id="paint0_radial_2129_1089" cx="0" cy="0" r="1" gradientUnits="userSpaceOnUse" gradientTransform="translate(529.501 123.794) scale(1109.71 488.454)">
<stop stop-color="#7B8499"/>
<stop offset="1" stop-color="#151E28"/>
</radialGradient>
<radialGradient id="paint1_radial_2129_1089" cx="0" cy="0" r="1" gradientUnits="userSpaceOnUse" gradientTransform="translate(37.5714 215.343) scale(1436.02 459.493)">
<stop stop-color="#7B8499"/>
<stop offset="1" stop-color="#151E28"/>
</radialGradient>
<radialGradient id="paint2_radial_2129_1089" cx="0" cy="0" r="1" gradientUnits="userSpaceOnUse" gradientTransform="translate(403.99 113.635) scale(866.149 772.515)">
<stop stop-color="#B8BFC9"/>
<stop offset="1" stop-color="#151E28"/>
</radialGradient>
<radialGradient id="paint3_radial_2129_1089" cx="0" cy="0" r="1" gradientUnits="userSpaceOnUse" gradientTransform="translate(403.99 16.9615) scale(1011.41 438.078)">
<stop stop-color="#3D4753"/>
<stop offset="1" stop-color="#0B1318"/>
</radialGradient>
</defs>
</svg>

<svg width="375" height="100" fill="none" xmlns="http://www.w3.org/2000/svg"><path d="M780.499 17.875L740.546.57H407.869l-75.695 32.786h-603.556L-347.077.57H-556v51.892h972.607L523.99 98.974h501.33l107.39-46.512H1364V17.875H780.499z" fill="url(#paint0_radial_2129_1089)"/><path d="M740.546.57H407.869l-57.692 24.966h195.711l107.383 46.511H970.63l107.38-46.511H1364v-7.66H780.499L740.546.57z" fill="url(#paint1_radial_2129_1089)"/><path d="M1026.27 100H523.043l-.737-.296-106.647-46.216H-556v-2.052h973.607L524.99 97.948h499.33l107.38-46.512H1364v2.052h-230.35L1026.27 100z" fill="url(#paint2_radial_2129_1089)"/><path d="M332.701 33.926h-604.662L-347.656 1.14H-556V0h209.45l75.694 32.786h602.451L407.29 0h333.783l40.005 17.305H1364v1.14H779.973L740.02 1.14H408.395l-75.694 32.786z" fill="url(#paint3_radial_2129_1089)"/><defs><radialGradient id="paint0_radial_2129_1089" cx="0" cy="0" r="1" gradientUnits="userSpaceOnUse" gradientTransform="matrix(1109.71 0 0 488.454 529.501 123.794)"><stop stop-color="#7B8499"/><stop offset="1" stop-color="#151E28"/></radialGradient><radialGradient id="paint1_radial_2129_1089" cx="0" cy="0" r="1" gradientUnits="userSpaceOnUse" gradientTransform="matrix(1436.02 0 0 459.493 37.571 215.343)"><stop stop-color="#7B8499"/><stop offset="1" stop-color="#151E28"/></radialGradient><radialGradient id="paint2_radial_2129_1089" cx="0" cy="0" r="1" gradientUnits="userSpaceOnUse" gradientTransform="matrix(866.149 0 0 772.515 403.99 113.635)"><stop stop-color="#B8BFC9"/><stop offset="1" stop-color="#151E28"/></radialGradient><radialGradient id="paint3_radial_2129_1089" cx="0" cy="0" r="1" gradientUnits="userSpaceOnUse" gradientTransform="matrix(1011.41 0 0 438.078 403.99 16.962)"><stop stop-color="#3D4753"/><stop offset="1" stop-color="#0B1318"/></radialGradient></defs></svg>
